src/icons/svg/component.svg

<svg t="1629175786925" class="icon" viewBox="0 0 1024 1024" version="1.1" xmlns="http://www.w3.org/2000/svg" p-id="32604" width="200" height="200"><path d="M238.933333 443.733333h17.066667a119.466667 119.466667 0 0 1 0 238.933334H238.933333v136.533333h136.533334v-19.182933a117.3504 117.3504 0 1 1 234.7008 0V819.2H716.8v-204.6976L785.066667 614.4A68.3008 68.3008 0 0 0 785.066667 477.866667h-68.266667v-136.533334h-136.533333V273.066667a68.266667 68.266667 0 1 0-136.533334 0v68.266666H238.933333v102.4z m273.066667-307.2a136.533333 136.533333 0 0 1 136.533333 136.533334h136.533334v136.533333a136.533333 136.533333 0 0 1 0.034133 273.1008L785.066667 887.466667h-243.165867v-87.4496a49.083733 49.083733 0 0 0-98.167467 0V887.466667H170.666667v-273.066667h85.333333a51.2 51.2 0 0 0 0-102.4H170.666667V273.066667h204.8a136.533333 136.533333 0 0 1 136.533333-136.533334z" p-id="32605"></path></svg>

<svg viewBox="0 0 1024 1024" width="200" height="200"><path d="M238.933 443.733H256a119.467 119.467 0 010 238.934h-17.067V819.2h136.534v-19.183a117.35 117.35 0 11234.7 0V819.2H716.8V614.502l68.267-.102a68.3 68.3 0 000-136.533H716.8V341.333H580.267v-68.266a68.267 68.267 0 10-136.534 0v68.266h-204.8v102.4zM512 136.533a136.533 136.533 0 01136.533 136.534h136.534V409.6a136.533 136.533 0 01.034 273.1l-.034 204.767H541.9v-87.45a49.084 49.084 0 00-98.168 0v87.45H170.667V614.4H256a51.2 51.2 0 000-102.4h-85.333V273.067h204.8A136.533 136.533 0 01512 136.533z"/></svg>
